packages/assets/application-icons/15.Box.svg

<?xml version="1.0" encoding="UTF-8"?>
<svg width="24px" height="24px" viewBox="0 0 24 24" version="1.1" xmlns="http://www.w3.org/2000/svg" xmlns:xlink="http://www.w3.org/1999/xlink">
    <title>15.Box</title>
    <g id="Page-1" stroke="none" stroke-width="1" fill="none" fill-rule="evenodd">
        <g id="Artboard" transform="translate(-134.000000, -169.000000)" fill="#000000" fill-rule="nonzero">
            <g id="15.Box" transform="translate(134.000000, 169.000000)">
                <path d="M11.8509375,12.0296875 C11.2125,11.768125 8.4534375,10.4040625 6.436875,9.3915625 L11.904375,6.745 L17.3184375,9.3634375 C15.2934375,10.384375 12.4809375,11.77375 11.8509375,12.0296875 Z M14.55375,4 L20.1140625,7.234375 L17.9596875,8.98375 L12.399375,6.30625 L14.55375,4 Z M3.5034375,7.2371875 L9.0721875,4.0028125 L11.38125,6.3146875 L5.77875,9.02875 L3.5034375,7.2371875 Z M5.750625,9.7375 C8.985,11.3659375 10.498125,12.094375 11.2209375,12.415 L8.4871875,14.0265625 C7.8684375,13.7846875 5.041875,12.3784375 3,11.3490625 L5.750625,9.7375 Z M6.13875,13.6046875 C8.3240625,14.6678125 8.4646875,14.670625 8.52375,14.670625 C8.58,14.670625 8.6334375,14.6565625 8.68125,14.6284375 L11.4909375,12.9803125 L11.4909375,20 L6.13875,17.1725 L6.13875,13.6046875 Z M17.67,17.1725 L12.1125,20 L12.1125,12.836875 L15.3440625,14.63125 C15.3890625,14.6565625 15.4425,14.670625 15.493125,14.670625 C15.5521875,14.670625 15.6815625,14.670625 17.6728125,13.7059375 L17.67,17.1725 Z M15.5240625,14.029375 L12.5625,12.38125 C13.31625,12.038125 14.8490625,11.30125 18.0159375,9.70375 L21,11.351875 C18.9553125,12.3896875 16.123125,13.7903125 15.5240625,14.029375 Z" id="Box"></path>
            </g>
        </g>
    </g>
</svg>

<svg width="24" height="24" viewBox="0 0 24 24" xmlns="http://www.w3.org/2000/svg"><path d="M11.85 12.03c-.637-.262-3.397-1.626-5.413-2.638l5.467-2.647 5.414 2.618c-2.025 1.021-4.837 2.41-5.467 2.667ZM14.555 4l5.56 3.234-2.154 1.75-5.56-2.678L14.553 4ZM3.504 7.237l5.568-3.234 2.31 2.312-5.603 2.714-2.276-1.792Zm2.247 2.5c3.234 1.629 4.747 2.357 5.47 2.678l-2.734 1.612c-.619-.242-3.445-1.649-5.487-2.678l2.75-1.611Zm.388 3.868c2.185 1.063 2.326 1.066 2.385 1.066.056 0 .11-.014.157-.043l2.81-1.648V20l-5.352-2.828v-3.567Zm11.531 3.567L12.112 20v-7.163l3.232 1.794a.31.31 0 0 0 .15.04c.058 0 .188 0 2.179-.965l-.003 3.466Zm-2.146-3.143-2.961-1.648c.753-.343 2.286-1.08 5.453-2.677L21 11.352c-2.045 1.038-4.877 2.438-5.476 2.677Z" fill="#000" fill-rule="nonzero"/></svg>
